X:1
T:Chicago
%T:for the dance by Trevor Monson
C:Ethan Hazzard-Watkins
Z:Brian Stanton
O:2008
M:3/4
L:1/8
K:D major
A, D>F "A1"|\
"D"E>D- D>F (3AFA | "G"B>d-d2D>E | "Bm"F>A B>f (3edB | "A7"A4B>A | "D"A2f>e (3dBA | 
"Bm"B>F-F2(3DEF | "Em"G2G>A B>A | "A7"E3A, D>F "A2"|[| "D"E>D- D>F (3AFA | "G"B>d-d2D>E | 
"Bm"F>A B>f (3edB | "A7"A4d>B | "D"A2f>e d>A | "Bm"B>F-F2(3DEF | "Em"G2G>A B>A | "A7"A2c>d e>g |] 
"B1"[|\
"D"f2A>B d>e | f>A- A>B d>e | f>A B>d g>f | "A7"e2-e>g (3fed | "D"d2A>B (3dBA | 
"Bm"B>F- F>D E>F | "G"G2A2B>d | "A7"c2d2e>g "B2"|[| "D"f2A>B d>e | f>A- A>B d>e | 
f>A B>d g>f | "A7"e3g (3fec | "D"d2A>B (3dBA | "Bm"B>F- F>D E>F | "A7"G>F E>D C>E | "D"D3 |] 
